X:1
T:Sonoma, 77.77
T:Sonoma, 77.77
T:Ira David Sankey, 1887
T:Public Domain Courtesy of the Cyber Hymnal™
C:Ira David Sankey, 1887
Z:Public Domain
Z:Courtesy of the Cyber Hymnal™
%%score ( 1 2 ) ( 3 4 )
L:1/8
M:3/4
K:Bb
V:1 treble 
V:2 treble 
V:3 bass 
V:4 bass 
V:1
 ([DF]2 [B,D]2) [CE]2 | [DF]4 [Fd]2 | ([Ec]2 [DB]2) [EA]2 | [DB]4 z2 | ([EG]2 [FA]2) [GB]2 | %5
 [DF]4 [Fd]2 | (d2 c2) [_EB]2 | [Fc]4 z2 | ([DF]2 [B,D]2) [CE]2 | [DF]4 [Fd]2 | %10
 ([Ec]2 [DB]2) [EA]2 | [DB]4 z2 | (G2 A2) [=CB]2 | [DF]4 [Fd]2 | (c2 G2) [EA]2 | [DB]6 |] %16
V:2
 x6 | x6 | x6 | x6 | x6 | x6 | =E4 x2 | x6 | x6 | x6 | x6 | x6 | ^C4 x2 | x6 | E4 x2 | x6 |] %16
V:3
 (B,2 F,2) [B,,F,]2 | [B,,B,]4 [B,,B,]2 | (A,2 B,2) [F,C]2 | [B,,B,]4 z2 | [E,B,]4 [E,B,]2 | %5
 B,4 B,2 | [G,B,]4 [G,C]2 | [F,A,]4 z2 | (B,2 F,2) [B,,F,]2 | [B,,B,]4 [B,,B,]2 | %10
 (A,2 B,2) [F,C]2 | [G,B,]4 z2 | (B,2 A,2) [_E,G,]2 | [F,B,]4 [F,B,]2 | (A,2 B,2) [F,C]2 | %15
 [B,,B,]6 |] %16
V:4
 B,,4 x2 | x6 | F,4 x2 | x6 | x6 | B,4 B,2 | x6 | x6 | B,,4 x2 | x6 | F,4 x2 | x6 | =E,4 x2 | x6 | %14
 F,4 x2 | x6 |] %16

